dist/svg/static/poi-last-destination-small.svg

<svg xmlns="http://www.w3.org/2000/svg" width="24" height="24" viewBox="0 0 24 24"><g fill="none" stroke="currentColor"><path d="M18.5 8.5c0-3.9-3.1-7-7-7s-7 3.1-7 7 7 14 7 14 7-10.1 7-14z"/><path d="M11.5 11.5c1.7 0 3-1.3 3-3s-1.3-3-3-3-3 1.2-3 3v2"/><path d="M10.9 8l-2.4 2.5L6 8"/></g></svg>

<?xml version="1.0" encoding="UTF-8" standalone="no"?>
<svg width="24px" height="24px" viewBox="0 0 24 24" version="1.1" xmlns="http://www.w3.org/2000/svg" xmlns:xlink="http://www.w3.org/1999/xlink">
    <!-- Generator: sketchtool 46.2 (44496) - http://www.bohemiancoding.com/sketch -->
    <title>poi-last-destination-small</title>
    <desc>Created with sketchtool.</desc>
    <defs></defs>
    <g id="icons-published" stroke="none" stroke-width="1" fill="none" fill-rule="evenodd">
        <g id="briefing" transform="translate(-2084.000000, -1306.000000)"></g>
        <g id="poi-last-destination-small" stroke="#000000">
            <path d="M18.5,8.5 C18.5,4.6 15.4,1.5 11.5,1.5 C7.6,1.5 4.5,4.6 4.5,8.5 C4.5,12.4 11.5,22.5 11.5,22.5 C11.5,22.5 18.5,12.4 18.5,8.5 Z" id="Shape"></path>
            <path d="M11.5,11.5 C13.2,11.5 14.5,10.2 14.5,8.5 C14.5,6.8 13.2,5.5 11.5,5.5 C9.8,5.5 8.5,6.7 8.5,8.5 L8.5,10.5" id="Shape"></path>
            <polyline id="Shape" points="10.9 8 8.5 10.5 6 8"></polyline>
        </g>
    </g>
</svg>
